X:276
T:Little Sadie
C:Mountain Heart - That Just Happened
N:mandolin: Aaron Ramsey  Transcribed by Philippe Colleu
R:bluegrass
L:1/8
Q:1/4=215
M:4/4
K:C
"(110 bpm)"z2 (3^FED FA2e | "Bm"^f2 ^gf "D"a2 "2"ab | "3""A"^fe "3"d^c "Bm"Be cB | 
"A"^ce e2 e^f ec | ^f^c ec "F#m"B/c/B A^G | ^FA ^ce "1"^f^g ab | "1"^ga b^c' "1"ab ae | 
"1""D"^g{e}"3"g "4"e'2 d'2 ^c'2 | b2 ^fa "Bm"^gf e=f/e/ | dB ^c/B/A ^FE =F/E/D | 
ED B,A, [b4d4^F4B,4] | 


